components/Common/Svg/svgs/laptop.svg

<svg width="40" height="40" viewBox="0 0 40 40" fill="none" xmlns="http://www.w3.org/2000/svg">
<path fill-rule="evenodd" clip-rule="evenodd" d="M36.5395 9.97167V28.9605H38.5C38.7761 28.9605 39 29.1843 39 29.4605V32.074C39 32.2066 38.9473 32.3337 38.8536 32.4275L36.3344 34.9467C36.2406 35.0404 36.1135 35.0931 35.9808 35.0931H4.01876C3.88638 35.0931 3.75941 35.0406 3.66568 34.9471L1.14692 32.4351C1.05286 32.3413 1 32.2139 1 32.081V29.4679C1 29.1918 1.22386 28.9679 1.5 28.9679H3.45306V9.97167C3.45306 8.28146 4.82917 6.90535 6.51939 6.90535H13.6934C13.8806 6.90535 14.0508 6.79995 14.144 6.63762C15.19 4.81661 17.079 3.50605 19.2334 3.27063C21.148 3.06122 23.0626 3.66701 24.491 4.94589C25.0348 5.43721 25.4867 6.00885 25.8418 6.6357C25.9344 6.79921 26.1051 6.90535 26.293 6.90535H33.4731C35.1634 6.90535 36.5395 8.28146 36.5395 9.97167ZM19.368 4.48968C16.9075 4.7664 14.8733 6.74081 14.5367 9.1864C14.2974 10.9065 14.8508 12.5967 16.0624 13.8233C17.2814 15.0722 18.0069 16.7325 18.1415 18.5499H21.866C22.0081 16.7774 22.7634 15.0872 24.0274 13.741C24.9846 12.7164 25.5156 11.3777 25.5156 9.97167C25.5156 8.40112 24.8426 6.90535 23.6759 5.85831C22.4942 4.79632 20.9685 4.31019 19.368 4.48968ZM6.51191 8.13188C5.50226 8.13188 4.67959 8.95455 4.67959 9.97167V28.9679H16.9299H23.0626H35.3204V9.9642C35.3204 8.94707 34.4977 8.1244 33.4806 8.1244H26.4729C26.6375 8.72271 26.7347 9.33597 26.7347 9.9642C26.7347 11.6843 26.084 13.3222 24.9099 14.5712C23.8628 15.6855 23.2271 17.0841 23.085 18.5424H23.7816C24.0578 18.5424 24.2816 18.7663 24.2816 19.0424V19.269C24.2816 19.5451 24.0578 19.769 23.7816 19.769H16.2034C15.9273 19.769 15.7034 19.5451 15.7034 19.269V19.0424C15.7034 18.7663 15.9273 18.5424 16.2034 18.5424H16.9C16.7654 17.0616 16.1521 15.678 15.1724 14.6759C13.7066 13.1801 13.026 11.1159 13.3177 9.01438C13.3625 8.71523 13.4298 8.42355 13.5121 8.13188H6.51191ZM37.7682 31.78C37.7711 31.78 37.7735 31.7776 37.7735 31.7747V30.6945C37.7735 30.4183 37.5496 30.1945 37.2735 30.1945H24.2891H15.7109H2.72653C2.45039 30.1945 2.22653 30.4183 2.22653 30.6945V31.5729C2.22653 31.7055 2.27921 31.8327 2.37298 31.9264L4.17416 33.7276C4.26793 33.8214 4.39511 33.8741 4.52771 33.8741H35.4648C35.5974 33.8741 35.7246 33.8214 35.8184 33.7276L37.7644 31.7815C37.7654 31.7805 37.7668 31.78 37.7682 31.78ZM17.5507 21.0029H22.4494H23.7892C24.0653 21.0029 24.2892 21.2268 24.2892 21.5029V21.7295C24.2892 22.0056 24.0653 22.2295 23.7892 22.2295H22.4494H21.2228H18.7698H17.5507H16.2109C15.9348 22.2295 15.7109 22.0056 15.7109 21.7295V21.5029C15.7109 21.2268 15.9348 21.0029 16.2109 21.0029H17.5507Z" fill="#161616"/>
<path fill-rule="evenodd" clip-rule="evenodd" d="M24.6249 4.7975C25.1851 5.30366 25.6503 5.89229 26.0156 6.53713C26.0751 6.64225 26.1818 6.70535 26.2928 6.70535H33.4729C35.2736 6.70535 36.7393 8.171 36.7393 9.97168V28.7605H38.4998C38.8864 28.7605 39.1998 29.0739 39.1998 29.4605V32.074C39.1998 32.2596 39.1261 32.4377 38.9948 32.5689L36.4756 35.0881C36.3443 35.2194 36.1663 35.2931 35.9807 35.2931H4.01857C3.83324 35.2931 3.65547 35.2196 3.52425 35.0887L3.66548 34.9471C3.75921 35.0406 3.88619 35.0931 4.01857 35.0931H35.9807C36.1133 35.0931 36.2404 35.0404 36.3342 34.9467L38.8534 32.4275C38.9471 32.3337 38.9998 32.2066 38.9998 32.074V29.4605C38.9998 29.1843 38.7759 28.9605 38.4998 28.9605H36.5393V9.97168C36.5393 8.28146 35.1632 6.90535 33.4729 6.90535H26.2928C26.1049 6.90535 25.9342 6.79921 25.8416 6.6357C25.4865 6.00885 25.0346 5.43721 24.4909 4.9459C23.0624 3.66701 21.1478 3.06123 19.2332 3.27064C17.0788 3.50605 15.1898 4.81661 14.1438 6.63763C14.0506 6.79995 13.8804 6.90535 13.6932 6.90535H6.51919C4.82897 6.90535 3.45287 8.28146 3.45287 9.97168V28.9679H1.4998C1.22366 28.9679 0.999805 29.1918 0.999805 29.4679V32.081C0.999805 32.2139 1.05267 32.3413 1.14672 32.4351L3.66548 34.9471L3.52425 35.0887L1.00549 32.5767C0.873811 32.4454 0.799805 32.267 0.799805 32.081V29.4679C0.799805 29.0813 1.1132 28.7679 1.4998 28.7679H3.25287V9.97168C3.25287 8.171 4.71852 6.70535 6.51919 6.70535H13.6932C13.8038 6.70535 13.9102 6.64271 13.9704 6.53801C15.0465 4.66459 16.9902 3.31455 19.2115 3.07182C21.1817 2.85633 23.1536 3.48022 24.6249 4.7975ZM14.7346 9.21396C14.5037 10.8733 15.0373 12.5011 16.2045 13.6827L16.2053 13.6836C17.4175 14.9255 18.1528 16.5606 18.325 18.3499H21.6833C21.8652 16.5982 22.6311 14.9358 23.8814 13.6041C24.804 12.6165 25.3155 11.3266 25.3155 9.97168C25.3155 8.45835 24.6668 7.01656 23.5421 6.00716C22.4034 4.98381 20.9346 4.51525 19.3902 4.68843C17.0199 4.955 15.0586 6.85968 14.7346 9.21396ZM19.3678 4.48969C20.9683 4.31019 22.494 4.79632 23.6757 5.85831C24.8424 6.90535 25.5155 8.40112 25.5155 9.97168C25.5155 11.3777 24.9845 12.7164 24.0272 13.741C22.7632 15.0872 22.0079 16.7774 21.8658 18.5499H18.1413C18.0067 16.7326 17.2812 15.0722 16.0622 13.8233C14.8506 12.5968 14.2972 10.9065 14.5365 9.1864C14.8731 6.74082 16.9073 4.7664 19.3678 4.48969ZM13.1194 8.98689L13.1197 8.98472C13.1529 8.76321 13.1979 8.54645 13.2516 8.33188H6.51171C5.61305 8.33188 4.8794 9.06448 4.8794 9.97168V28.7679H35.1202V9.9642C35.1202 9.05753 34.3871 8.3244 33.4804 8.3244H26.731C26.8597 8.85739 26.9345 9.40418 26.9345 9.9642C26.9345 11.7353 26.2644 13.4221 25.0554 14.7082C24.0906 15.7349 23.4866 17.0085 23.3092 18.3424H23.7814C24.168 18.3424 24.4814 18.6558 24.4814 19.0424V19.269C24.4814 19.6556 24.168 19.969 23.7814 19.969H16.2032C15.8166 19.969 15.5032 19.6556 15.5032 19.269V19.0424C15.5032 18.6558 15.8166 18.3424 16.2032 18.3424H16.6772C16.5085 16.987 15.9264 15.7334 15.0293 14.8158C13.5198 13.2754 12.8192 11.1493 13.1194 8.98689ZM15.1722 14.6759C16.1077 15.6328 16.7091 16.9374 16.8787 18.3424C16.8867 18.4089 16.8937 18.4756 16.8998 18.5424H16.2032C15.9271 18.5424 15.7032 18.7663 15.7032 19.0424V19.269C15.7032 19.5451 15.9271 19.769 16.2032 19.769H23.7814C24.0576 19.769 24.2814 19.5451 24.2814 19.269V19.0424C24.2814 18.7663 24.0576 18.5424 23.7814 18.5424H23.0848C23.0913 18.4756 23.0989 18.409 23.1075 18.3424C23.286 16.9565 23.9106 15.6345 24.9097 14.5712C26.0838 13.3222 26.7345 11.6843 26.7345 9.9642C26.7345 9.40578 26.6577 8.85918 26.5251 8.3244C26.5085 8.25755 26.491 8.19089 26.4727 8.1244H33.4804C34.4975 8.1244 35.3202 8.94708 35.3202 9.9642V28.9679H4.6794V9.97168C4.6794 8.95456 5.50207 8.13188 6.51171 8.13188H13.5119C13.4931 8.19852 13.4751 8.26516 13.458 8.33188C13.4001 8.55722 13.3521 8.78358 13.3175 9.01439C13.0258 11.1159 13.7064 13.1801 15.1722 14.6759ZM37.5733 31.6897L35.6768 33.5862C35.6205 33.6425 35.5442 33.6741 35.4646 33.6741H4.52752C4.44795 33.6741 4.37165 33.6425 4.31539 33.5862L2.5142 31.785C2.45794 31.7288 2.42633 31.6524 2.42633 31.5729V30.6945C2.42633 30.5288 2.56065 30.3945 2.72633 30.3945H37.2733C37.439 30.3945 37.5733 30.5288 37.5733 30.6945V31.6897ZM23.789 20.8029C24.1756 20.8029 24.489 21.1163 24.489 21.5029V21.7295C24.489 22.1161 24.1756 22.4295 23.789 22.4295H16.2107C15.8241 22.4295 15.5107 22.1161 15.5107 21.7295V21.5029C15.5107 21.1163 15.8241 20.8029 16.2107 20.8029H23.789ZM37.7733 31.7747C37.7733 31.7776 37.7709 31.78 37.768 31.78C37.7666 31.78 37.7652 31.7805 37.7642 31.7815L35.8182 33.7276C35.7244 33.8214 35.5972 33.8741 35.4646 33.8741H4.52752C4.39491 33.8741 4.26773 33.8214 4.17396 33.7276L2.37278 31.9264C2.27901 31.8327 2.22633 31.7055 2.22633 31.5729V30.6945C2.22633 30.4183 2.45019 30.1945 2.72633 30.1945H37.2733C37.5494 30.1945 37.7733 30.4183 37.7733 30.6945V31.7747ZM16.2107 21.0029C15.9346 21.0029 15.7107 21.2268 15.7107 21.5029V21.7295C15.7107 22.0056 15.9346 22.2295 16.2107 22.2295H23.789C24.0651 22.2295 24.289 22.0056 24.289 21.7295V21.5029C24.289 21.2268 24.0651 21.0029 23.789 21.0029H16.2107Z" fill="#161616"/>
</svg>

<svg width="40" height="40" viewBox="0 0 40 40" fill="none" xmlns="http://www.w3.org/2000/svg"><path fill-rule="evenodd" clip-rule="evenodd" d="M36.54 9.972V28.96h1.96a.5.5 0 0 1 .5.5v2.613a.5.5 0 0 1-.146.354l-2.52 2.519a.5.5 0 0 1-.353.146H4.019a.5.5 0 0 1-.353-.146l-2.52-2.512A.5.5 0 0 1 1 32.081v-2.613a.5.5 0 0 1 .5-.5h1.953V9.972A3.07 3.07 0 0 1 6.52 6.905h7.174a.523.523 0 0 0 .451-.267c1.046-1.821 2.935-3.132 5.09-3.367a6.776 6.776 0 0 1 5.257 1.675 6.767 6.767 0 0 1 1.35 1.69c.093.163.264.27.452.27h7.18a3.07 3.07 0 0 1 3.066 3.066ZM19.367 4.49c-2.46.276-4.495 2.25-4.831 4.696a5.47 5.47 0 0 0 1.525 4.637c1.22 1.25 1.945 2.91 2.08 4.727h3.724c.142-1.773.897-3.463 2.161-4.809a5.506 5.506 0 0 0 1.489-3.77c0-1.57-.673-3.066-1.84-4.113-1.182-1.062-2.707-1.548-4.308-1.368ZM6.512 8.132c-1.01 0-1.832.823-1.832 1.84v18.996h30.64V9.964c0-1.017-.822-1.84-1.84-1.84h-7.007c.165.599.262 1.212.262 1.84 0 1.72-.651 3.358-1.825 4.607a6.772 6.772 0 0 0-1.825 3.971h.697a.5.5 0 0 1 .5.5v.227a.5.5 0 0 1-.5.5h-7.579a.5.5 0 0 1-.5-.5v-.227a.5.5 0 0 1 .5-.5h.697c-.135-1.48-.748-2.864-1.728-3.866a6.713 6.713 0 0 1-1.854-5.662c.045-.299.112-.59.194-.882h-7ZM37.768 31.78a.005.005 0 0 0 .005-.005v-1.08a.5.5 0 0 0-.5-.5H2.727a.5.5 0 0 0-.5.5v.878a.5.5 0 0 0 .146.353l1.801 1.802a.5.5 0 0 0 .354.146h30.937a.5.5 0 0 0 .353-.146l1.946-1.947a.005.005 0 0 1 .004-.001ZM17.551 21.003H23.789a.5.5 0 0 1 .5.5v.227a.5.5 0 0 1-.5.5H16.21a.5.5 0 0 1-.5-.5v-.227a.5.5 0 0 1 .5-.5h1.34Z" fill="#161616"/><path fill-rule="evenodd" clip-rule="evenodd" d="M24.625 4.798a6.968 6.968 0 0 1 1.39 1.74c.06.104.167.167.278.167h7.18a3.27 3.27 0 0 1 3.266 3.267V28.76h1.76a.7.7 0 0 1 .7.7v2.614a.7.7 0 0 1-.204.495l-2.52 2.52a.7.7 0 0 1-.494.204H4.019a.7.7 0 0 1-.495-.204l.141-.142a.5.5 0 0 0 .354.146H35.98a.5.5 0 0 0 .353-.146l2.52-2.52a.5.5 0 0 0 .146-.353v-2.613a.5.5 0 0 0-.5-.5h-1.96V9.97a3.07 3.07 0 0 0-3.067-3.066h-7.18a.522.522 0 0 1-.451-.27 6.769 6.769 0 0 0-1.351-1.69 6.777 6.777 0 0 0-5.258-1.674c-2.154.235-4.043 1.546-5.09 3.367a.523.523 0 0 1-.45.267H6.52a3.07 3.07 0 0 0-3.066 3.067v18.996H1.5a.5.5 0 0 0-.5.5v2.613a.5.5 0 0 0 .147.354l2.518 2.512-.14.142-2.52-2.512A.7.7 0 0 1 .8 32.08v-2.613a.7.7 0 0 1 .7-.7h1.753V9.972a3.27 3.27 0 0 1 3.266-3.267h7.174c.11 0 .217-.062.277-.167 1.076-1.873 3.02-3.223 5.242-3.466a6.978 6.978 0 0 1 5.413 1.726Zm-9.89 4.416a5.27 5.27 0 0 0 1.47 4.469c1.213 1.242 1.948 2.878 2.12 4.667h3.358c.182-1.752.948-3.414 2.198-4.746a5.306 5.306 0 0 0 1.434-3.632 5.333 5.333 0 0 0-1.773-3.965c-1.139-1.023-2.607-1.492-4.152-1.319-2.37.267-4.331 2.172-4.655 4.526Zm4.633-4.724c1.6-.18 3.126.306 4.308 1.368a5.533 5.533 0 0 1 1.84 4.114 5.506 5.506 0 0 1-1.489 3.769c-1.264 1.346-2.02 3.036-2.161 4.809H18.14c-.134-1.817-.86-3.478-2.079-4.727a5.47 5.47 0 0 1-1.526-4.637c.337-2.445 2.371-4.42 4.832-4.696Zm-6.249 4.497v-.002c.034-.222.079-.439.133-.653h-6.74c-.899 0-1.633.732-1.633 1.64v18.796H35.12V9.964c0-.906-.733-1.64-1.64-1.64h-6.749a6.97 6.97 0 0 1 .203 1.64c0 1.771-.67 3.458-1.879 4.744a6.587 6.587 0 0 0-1.746 3.634h.472a.7.7 0 0 1 .7.7v.227a.7.7 0 0 1-.7.7h-7.578a.7.7 0 0 1-.7-.7v-.227a.7.7 0 0 1 .7-.7h.474c-.168-1.355-.75-2.609-1.648-3.526a6.913 6.913 0 0 1-1.91-5.83Zm2.053 5.689c.936.957 1.537 2.261 1.707 3.666.008.067.015.134.02.2h-.696a.5.5 0 0 0-.5.5v.227a.5.5 0 0 0 .5.5h7.578a.5.5 0 0 0 .5-.5v-.227a.5.5 0 0 0-.5-.5h-.696a6.785 6.785 0 0 1 1.825-3.971 6.707 6.707 0 0 0 1.825-4.607 6.797 6.797 0 0 0-.262-1.84h7.007c1.018 0 1.84.823 1.84 1.84v19.004H4.68V9.972c0-1.017.822-1.84 1.832-1.84h7a6.77 6.77 0 0 0-.194.883 6.713 6.713 0 0 0 1.854 5.66ZM37.573 31.69l-1.896 1.896a.3.3 0 0 1-.212.088H4.528a.3.3 0 0 1-.213-.088l-1.8-1.801a.3.3 0 0 1-.089-.212v-.878a.3.3 0 0 1 .3-.3h34.547a.3.3 0 0 1 .3.3v.995ZM23.79 20.803a.7.7 0 0 1 .7.7v.227a.7.7 0 0 1-.7.7h-7.578a.7.7 0 0 1-.7-.7v-.227a.7.7 0 0 1 .7-.7h7.578Zm13.984 10.972a.005.005 0 0 1-.005.005c-.001 0-.003 0-.004.002l-1.946 1.946a.5.5 0 0 1-.353.146H4.528a.5.5 0 0 1-.354-.146l-1.801-1.802a.5.5 0 0 1-.147-.353v-.878a.5.5 0 0 1 .5-.5h34.547a.5.5 0 0 1 .5.5v1.08ZM16.211 21.003a.5.5 0 0 0-.5.5v.227a.5.5 0 0 0 .5.5h7.578a.5.5 0 0 0 .5-.5v-.227a.5.5 0 0 0-.5-.5h-7.578Z" fill="#161616"/></svg>
